src/assets/img/icon_5.svg

<svg width="65" height="54" viewBox="0 0 65 54" fill="none" xmlns="http://www.w3.org/2000/svg">
<path d="M47.9977 35.2487L48.3483 35.6052L47.9977 35.2487ZM28.792 16.3264L28.4414 15.9699L28.792 16.3264ZM46.2904 16.3264L45.9399 15.9699L46.2904 16.3264ZM55.1433 7.62109L55.4939 7.9776V7.9776L55.1433 7.62109ZM47.9977 18.0015L47.6471 17.645L47.9977 18.0015ZM56.8374 9.30918L57.188 9.66569L56.8374 9.30918ZM58.7287 8.92768L58.5456 9.39293L58.7287 8.92768ZM62.8805 10.5618L63.0636 10.0965L63.0636 10.0965L62.8805 10.5618ZM63.2587 10.4855L62.9081 10.129V10.129L63.2587 10.4855ZM63.4952 10.253L63.8458 10.6095V10.6095L63.4952 10.253ZM63.4952 9.76532L63.1446 10.1218L63.4952 9.76532ZM54.5767 0.995524L54.9273 0.639012V0.639012L54.5767 0.995524ZM55.5244 5.74475L55.9855 5.55139L55.9855 5.55139L55.5244 5.74475ZM53.782 1.58968L53.3209 1.78305V1.78305L53.782 1.58968ZM54.0808 0.995524L54.4314 1.35204L54.4314 1.35204L54.0808 0.995524ZM53.8582 1.21442L53.5076 0.8579L53.5076 0.857903L53.8582 1.21442ZM44.6997 16.3264L44.3491 16.6829L44.6997 16.3264ZM47.9977 19.5694L48.3483 19.2129L47.9977 19.5694ZM47.4525 26.2152L47.9469 26.1405C47.9165 25.9395 47.7675 25.777 47.57 25.7292C47.3724 25.6815 47.1656 25.7581 47.0468 25.923L47.4525 26.2152ZM30.2996 47.859L30.2346 47.3633L30.2996 47.859ZM30.2996 34.9503L30.1004 34.4917L30.2996 34.9503ZM20.0361 44.6478L20.0788 45.146L21.1999 45.0498L20.3772 44.2822L20.0361 44.6478ZM9.20165 41.7931L8.70406 41.744L9.20165 41.7931ZM21.7562 39.322L21.4994 39.751L22.4465 40.3179L22.248 39.2321L21.7562 39.322ZM16.7093 33.1244L16.3397 32.7877L16.7093 33.1244ZM39.4521 44.3532L48.3483 35.6052L47.6471 34.8922L38.7509 43.6401L39.4521 44.3532ZM28.4414 15.9699L19.5265 24.7362L20.2276 25.4492L29.1425 16.6829L28.4414 15.9699ZM46.641 16.6829L55.4939 7.9776L54.7927 7.26458L45.9399 15.9699L46.641 16.6829ZM48.3483 18.358L57.188 9.66569L56.4868 8.95267L47.6471 17.645L48.3483 18.358ZM58.5456 9.39293L62.6973 11.027L63.0636 10.0965L58.9118 8.46242L58.5456 9.39293ZM63.6093 10.842L63.8458 10.6095L63.1446 9.89644L62.9081 10.129L63.6093 10.842ZM63.8458 9.4088L54.9273 0.639012L54.2262 1.35204L63.1446 10.1218L63.8458 9.4088ZM55.9855 5.55139L54.2431 1.39632L53.3209 1.78305L55.0633 5.93811L55.9855 5.55139ZM53.7302 0.639009L53.5076 0.8579L54.2088 1.57093L54.4314 1.35204L53.7302 0.639009ZM54.2431 1.39632C54.2688 1.45772 54.2533 1.52713 54.2088 1.57093L53.5076 0.857903C53.2628 1.09866 53.1872 1.46415 53.3209 1.78305L54.2431 1.39632ZM54.9273 0.639012C54.5958 0.313036 54.0617 0.313039 53.7302 0.639012L54.4314 1.35204C54.3738 1.4087 54.2838 1.4087 54.2262 1.35204L54.9273 0.639012ZM63.8458 10.6095C64.1819 10.2789 64.1819 9.73938 63.8458 9.4088L63.1446 10.1218C63.0823 10.0606 63.0823 9.9577 63.1446 9.89644L63.8458 10.6095ZM62.6973 11.027C63.0099 11.1501 63.3682 11.0791 63.6093 10.842L62.9081 10.129C62.9509 10.087 63.0115 10.076 63.0636 10.0965L62.6973 11.027ZM57.188 9.66569C57.5421 9.31748 58.0766 9.20835 58.5456 9.39293L58.9118 8.46242C58.0782 8.13433 57.1248 8.32534 56.4868 8.95267L57.188 9.66569ZM55.4939 7.9776C56.1393 7.34295 56.3352 6.38528 55.9855 5.55139L55.0633 5.93811C55.2535 6.3917 55.1488 6.91448 54.7927 7.26458L55.4939 7.9776ZM44.3491 16.6829C44.9829 17.3062 46.0072 17.3062 46.641 16.6829L45.9399 15.9699C45.6951 16.2105 45.295 16.2105 45.0502 15.9699L44.3491 16.6829ZM29.1425 16.6829C33.3408 12.5546 40.1509 12.5546 44.3491 16.6829L45.0502 15.9699C40.4629 11.459 33.0287 11.459 28.4414 15.9699L29.1425 16.6829ZM48.3483 19.2129C48.1072 18.9759 48.1072 18.5951 48.3483 18.358L47.6471 17.645C47.0076 18.2739 47.0076 19.2971 47.6471 19.9259L48.3483 19.2129ZM48.3483 35.6052C52.9506 31.0796 52.9506 23.7386 48.3483 19.2129L47.6471 19.9259C51.851 24.0597 51.851 30.7584 47.6471 34.8922L48.3483 35.6052ZM46.9581 26.29C47.0646 26.9943 46.856 28.0007 46.3612 29.211C45.8733 30.4041 45.1352 31.7293 44.2653 33.0419C42.5197 35.6758 40.2921 38.1873 38.6031 39.4329L39.1967 40.2377C41.0143 38.8972 43.3175 36.2822 45.0988 33.5943C45.9924 32.2461 46.7667 30.8616 47.2868 29.5894C47.8 28.3343 48.0949 27.1197 47.9469 26.1405L46.9581 26.29ZM38.6031 39.4329C37.6559 40.1314 37.0238 40.9643 36.5133 41.8078C36.2594 42.2272 36.0331 42.6538 35.8161 43.0645C35.597 43.4792 35.388 43.8764 35.16 44.2587C34.7068 45.0185 34.1948 45.6901 33.4518 46.2227C32.7104 46.754 31.7057 47.1704 30.2346 47.3633L30.3646 48.3548C31.9664 48.1448 33.1348 47.6801 34.0343 47.0355C34.932 46.3921 35.5285 45.593 36.0189 44.7709C36.2626 44.3622 36.4842 43.9406 36.7003 43.5316C36.9185 43.1186 37.1321 42.7166 37.3688 42.3256C37.8393 41.5481 38.3906 40.8321 39.1967 40.2377L38.6031 39.4329ZM47.0468 25.923C44.823 29.0108 42.8279 30.1792 40.3006 31.0592C37.7789 31.9373 34.5176 32.573 30.1004 34.4917L30.4988 35.4089C34.8995 33.4973 37.9243 32.9455 40.6295 32.0036C43.3291 31.0636 45.5016 29.7797 47.8583 26.5075L47.0468 25.923ZM30.1004 34.4917C25.512 36.4848 23.8293 40.1096 24.1918 43.2014C24.5505 46.2617 26.954 48.8019 30.3646 48.3548L30.2346 47.3633C27.4996 47.7218 25.4942 45.7228 25.185 43.0849C24.8794 40.4785 26.2695 37.2461 30.4988 35.4089L30.1004 34.4917ZM20.3772 44.2822C18.3957 42.4335 15.6992 40.8844 13.4345 40.1997C12.3105 39.8599 11.229 39.7131 10.3755 39.9035C9.94025 40.0006 9.54135 40.1907 9.23693 40.5103C8.929 40.8336 8.75247 41.2531 8.70406 41.744L9.69924 41.8422C9.72921 41.5381 9.82949 41.3381 9.96104 41.2C10.0961 41.0582 10.2993 40.945 10.5932 40.8795C11.1977 40.7446 12.0818 40.8354 13.1451 41.1569C15.2548 41.7947 17.8187 43.2629 19.695 45.0134L20.3772 44.2822ZM8.70406 41.744C8.6224 42.5723 8.97089 43.2564 9.59392 43.7725C10.1963 44.2715 11.06 44.6221 12.0745 44.8613C14.1105 45.3413 16.9422 45.4149 20.0788 45.146L19.9933 44.1496C16.9018 44.4147 14.1909 44.3329 12.304 43.888C11.3571 43.6648 10.6642 43.3606 10.2318 43.0024C9.82009 42.6613 9.6555 42.2858 9.69924 41.8422L8.70406 41.744ZM22.248 39.2321C21.8962 37.3076 20.9947 35.2565 19.9629 33.8902C19.4522 33.2137 18.8695 32.6514 18.2578 32.3894C17.9439 32.255 17.6026 32.1916 17.2562 32.2551C16.9055 32.3194 16.5969 32.5053 16.3397 32.7877L17.079 33.4611C17.2118 33.3152 17.3324 33.2578 17.4366 33.2387C17.5451 33.2188 17.6846 33.2318 17.8641 33.3087C18.2392 33.4693 18.6937 33.8688 19.1649 34.4928C20.0971 35.7273 20.9389 37.6315 21.2643 39.4119L22.248 39.2321ZM16.3397 32.7877C15.8992 33.2713 15.7972 33.8642 15.9451 34.4666C16.0863 35.0414 16.4522 35.628 16.9439 36.2001C17.9318 37.3496 19.5579 38.5888 21.4994 39.751L22.013 38.893C20.1103 37.7541 18.5888 36.5797 17.7023 35.5483C17.2567 35.0299 17.0037 34.5842 16.9162 34.2281C16.8356 33.8995 16.8953 33.6627 17.079 33.4611L16.3397 32.7877ZM0.152344 53.6105H63.9719V52.6105H0.152344V53.6105Z" fill="white"/>
</svg>

<svg xmlns="http://www.w3.org/2000/svg" fill="none" viewBox="0 0 65 54"><path fill="#fff" d="M47.998 35.249l.35.356-.35-.356zM28.792 16.326l-.35-.356.35.356zm17.498 0l-.35-.356.35.356zm8.853-8.705l.35.357-.35-.357zm-7.145 10.38l-.35-.356.35.357zm8.84-8.692l.35.357-.35-.357zm1.89-.381l-.182.465.183-.465zm4.152 1.634l.184-.465-.184.465zm.379-.076l-.35-.357.35.357zm.236-.233l.35.357-.35-.357zm0-.488l-.35.357.35-.357zM54.577.995l.35-.356-.35.357zm.947 4.75l.462-.194-.462.194zM53.782 1.59l-.461.193.461-.193zm.299-.594l.35.356-.35-.356zm-.223.218l-.35-.356.35.356zM44.7 16.326l-.35.357.35-.357zm3.298 3.243l.35-.356-.35.356zm-.545 6.646l.494-.075a.5.5 0 0 0-.9-.217l.406.292zM30.3 47.86l-.065-.496.065.496zm0-12.909l-.2-.458.2.458zm-10.264 9.698l.043.498 1.12-.096-.822-.768-.34.366zM9.202 41.793l-.498-.049.498.05zm12.554-2.471l-.257.429.948.567-.199-1.086-.492.09zm-5.047-6.198l-.37-.336.37.336zm22.743 11.23l8.896-8.749-.7-.713-8.897 8.748.701.713zM28.442 15.97l-8.916 8.766.702.713 8.914-8.766-.7-.713zm18.199.713l8.853-8.705-.701-.713-8.853 8.705.701.713zm1.707 1.675l8.84-8.692-.701-.713-8.84 8.692.701.713zm10.198-8.965l4.151 1.634.367-.93-4.152-1.635-.366.93zm5.063 1.449l.237-.232-.701-.714-.237.233.701.713zm.237-1.433L54.927.639l-.7.713 8.918 8.77.7-.713zm-7.86-3.858l-1.743-4.155-.922.387 1.742 4.155.922-.387zM53.73.64l-.222.219.7.713.223-.219-.7-.713zm.513.757a.16.16 0 0 1-.034.175l-.701-.713a.84.84 0 0 0-.187.925l.922-.387zm.684-.757a.855.855 0 0 0-1.197 0l.701.713a.145.145 0 0 1-.205 0l.701-.713zm8.919 9.97a.84.84 0 0 0 0-1.2l-.701.713a.16.16 0 0 1 0-.226l.7.713zm-1.149.418c.313.123.671.052.912-.185l-.7-.713a.145.145 0 0 1 .155-.032l-.367.93zm-5.509-1.361a1.275 1.275 0 0 1 1.358-.273l.366-.93a2.275 2.275 0 0 0-2.425.49l.701.713zm-1.694-1.688a2.203 2.203 0 0 0 .492-2.427l-.923.387c.19.454.086.976-.27 1.327l.7.713zm-11.145 8.705a1.638 1.638 0 0 0 2.292 0l-.701-.713a.639.639 0 0 1-.89 0l-.7.713zm-15.206 0c4.198-4.128 11.008-4.128 15.206 0l.701-.713c-4.587-4.511-12.021-4.511-16.609 0l.701.713zm19.205 2.53a.596.596 0 0 1 0-.855l-.7-.713a1.596 1.596 0 0 0 0 2.28l.7-.712zm0 16.392a11.457 11.457 0 0 0 0-16.392l-.7.713a10.457 10.457 0 0 1 0 14.966l.7.713zm-1.39-9.315c.107.704-.102 1.71-.597 2.921-.488 1.193-1.226 2.518-2.096 3.83-1.745 2.635-3.973 5.146-5.662 6.392l.594.805c1.817-1.34 4.12-3.956 5.902-6.644.893-1.348 1.668-2.732 2.188-4.005.513-1.255.808-2.47.66-3.448l-.989.149zm-8.355 13.143c-.947.698-1.58 1.531-2.09 2.375-.254.42-.48.846-.697 1.257-.219.414-.428.811-.656 1.194-.453.76-.965 1.431-1.708 1.964-.742.531-1.746.947-3.217 1.14l.13.992c1.601-.21 2.77-.675 3.67-1.32.897-.643 1.494-1.442 1.984-2.264.244-.409.465-.83.681-1.24.218-.412.432-.814.669-1.205.47-.778 1.022-1.494 1.828-2.088l-.594-.805zm8.444-13.51c-2.224 3.088-4.22 4.256-6.746 5.136-2.522.878-5.783 1.514-10.2 3.433l.398.917c4.4-1.912 7.425-2.463 10.13-3.405 2.7-.94 4.873-2.224 7.23-5.496l-.812-.585zM30.1 34.492c-4.588 1.993-6.27 5.618-5.908 8.71.358 3.06 2.762 5.6 6.173 5.153l-.13-.992c-2.735.359-4.74-1.64-5.05-4.278-.306-2.607 1.085-5.839 5.314-7.676l-.399-.917zm-9.723 9.79c-1.981-1.848-4.678-3.398-6.942-4.082-1.125-.34-2.206-.487-3.06-.297-.435.098-.834.288-1.138.607-.308.324-.485.743-.533 1.234l.995.098c.03-.304.13-.504.262-.642.135-.142.338-.255.632-.32.605-.135 1.489-.045 2.552.277 2.11.638 4.674 2.106 6.55 3.856l.682-.73zM8.704 41.744c-.082.828.267 1.512.89 2.029.602.498 1.466.85 2.48 1.088 2.037.48 4.868.554 8.005.285l-.086-.996c-3.091.265-5.802.183-7.689-.262-.947-.223-1.64-.527-2.072-.886-.412-.34-.576-.716-.533-1.16l-.995-.098zm13.544-2.512c-.352-1.924-1.253-3.975-2.285-5.342-.51-.676-1.094-1.239-1.705-1.5a1.736 1.736 0 0 0-1.002-.135c-.35.064-.66.25-.916.533l.739.673c.133-.146.253-.203.358-.222a.744.744 0 0 1 .427.07c.375.16.83.56 1.3 1.184.933 1.234 1.775 3.139 2.1 4.919l.984-.18zm-5.908-6.444c-.44.483-.543 1.076-.395 1.679.141.574.507 1.161.999 1.733.988 1.15 2.614 2.389 4.555 3.551l.514-.858c-1.903-1.139-3.424-2.313-4.31-3.345-.446-.518-.7-.964-.787-1.32-.08-.328-.02-.565.163-.767l-.74-.673zM.152 53.61h63.82v-1H.152v1z"/></svg>
